X:1
T:Paul Jones
M:3/4
L:1/4
K:C
 C| C C C| C C C| D D E| D2 C| D D E| D C C| E G A| G2 G| A G G| A c A|\
 G E D| C2 C/2C/2| F A c| G E C| D A, B,| C- D E| D3| z A2| A G A|\
 E E D| C2||
